images/xdai_logo.svg

<svg width="153" height="59" viewBox="0 0 153 59" fill="none" xmlns="http://www.w3.org/2000/svg">
<path d="M84.8379 27.9629L78.5098 18.3477H84.5918L87.8613 24.2539L91.1836 18.3477H97.2656L90.8496 27.9629L97.5469 38H91.4648L87.8613 31.6367L84.2578 38H78.1758L84.8379 27.9629ZM120.838 24.9043C120.838 27.0723 120.539 28.9766 119.941 30.6172C119.355 32.2461 118.5 33.6113 117.375 34.7129C116.262 35.8027 114.891 36.623 113.262 37.1738C111.645 37.7246 109.799 38 107.725 38H100.957V12.3008H108.48C110.367 12.3008 112.066 12.5703 113.578 13.1094C115.102 13.6484 116.402 14.4512 117.48 15.5176C118.559 16.5723 119.385 17.8848 119.959 19.4551C120.545 21.0254 120.838 22.8418 120.838 24.9043ZM115.318 25.0449C115.318 23.6152 115.172 22.3848 114.879 21.3535C114.598 20.3105 114.182 19.4492 113.631 18.7695C113.092 18.0898 112.424 17.5859 111.627 17.2578C110.842 16.9297 109.939 16.7656 108.92 16.7656H106.406V33.5H108.41C110.707 33.5 112.43 32.7969 113.578 31.3906C114.738 29.9844 115.318 27.8691 115.318 25.0449ZM137.15 38L136.113 35.3281H135.955C135.568 35.8555 135.182 36.3125 134.795 36.6992C134.408 37.0742 133.986 37.3848 133.529 37.6309C133.072 37.877 132.557 38.0586 131.982 38.1758C131.42 38.293 130.764 38.3516 130.014 38.3516C129.217 38.3516 128.479 38.2285 127.799 37.9824C127.119 37.7246 126.527 37.3438 126.023 36.8398C125.531 36.3242 125.145 35.6797 124.863 34.9062C124.582 34.1211 124.441 33.1953 124.441 32.1289C124.441 30.043 125.109 28.5078 126.445 27.5234C127.781 26.5273 129.779 25.9766 132.439 25.8711L135.568 25.7656V24.2891C135.568 23.4805 135.334 22.8828 134.865 22.4961C134.396 22.1094 133.74 21.916 132.896 21.916C132.053 21.916 131.227 22.0391 130.418 22.2852C129.621 22.5312 128.818 22.8594 128.01 23.2695L126.27 19.7188C127.254 19.168 128.344 18.7344 129.539 18.418C130.734 18.1016 131.988 17.9434 133.301 17.9434C135.75 17.9434 137.625 18.5176 138.926 19.666C140.238 20.8145 140.895 22.5605 140.895 24.9043V38H137.15ZM135.568 28.8945L133.793 28.9648C133.078 28.9883 132.475 29.082 131.982 29.2461C131.49 29.4102 131.092 29.6328 130.787 29.9141C130.494 30.1836 130.277 30.5117 130.137 30.8984C130.008 31.2734 129.943 31.6953 129.943 32.1641C129.943 32.9844 130.143 33.5703 130.541 33.9219C130.939 34.2617 131.461 34.4316 132.105 34.4316C132.598 34.4316 133.055 34.3496 133.477 34.1855C133.898 34.0098 134.262 33.7578 134.566 33.4297C134.883 33.0898 135.129 32.6797 135.305 32.1992C135.48 31.707 135.568 31.1445 135.568 30.5117V28.8945ZM146.186 13.2676C146.186 12.7637 146.262 12.3477 146.414 12.0195C146.566 11.6797 146.771 11.4102 147.029 11.2109C147.299 11 147.609 10.8535 147.961 10.7715C148.324 10.6895 148.705 10.6484 149.104 10.6484C149.502 10.6484 149.877 10.6895 150.229 10.7715C150.58 10.8535 150.885 11 151.143 11.2109C151.412 11.4102 151.623 11.6797 151.775 12.0195C151.939 12.3477 152.021 12.7637 152.021 13.2676C152.021 13.7598 151.939 14.1758 151.775 14.5156C151.623 14.8555 151.412 15.1309 151.143 15.3418C150.885 15.541 150.58 15.6875 150.229 15.7812C149.877 15.8633 149.502 15.9043 149.104 15.9043C148.705 15.9043 148.324 15.8633 147.961 15.7812C147.609 15.6875 147.299 15.541 147.029 15.3418C146.771 15.1309 146.566 14.8555 146.414 14.5156C146.262 14.1758 146.186 13.7598 146.186 13.2676ZM151.775 38H146.414V18.3477H151.775V38Z" fill="#262A2A"/>
<path fill-rule="evenodd" clip-rule="evenodd" d="M23.0651 0H0V11.6388H23.0651V0ZM58 0H34.9349V11.6388H58V0ZM46.4 46.5551H34.9349V58.1939H58V46.5551L57.9999 35.0516H46.4V46.5551ZM23.0651 46.5551H11.6V35.0516H0V46.5551V58.1939V58.1939H23.0651V46.5551Z" fill="#48A9A6"/>
</svg>

<svg xmlns="http://www.w3.org/2000/svg" width="153" height="59" fill="none" xmlns:v="https://vecta.io/nano"><path d="M84.838 27.963l-6.328-9.615h6.082l3.269 5.906 3.322-5.906h6.082l-6.416 9.615L97.547 38h-6.082l-3.603-6.363L84.258 38h-6.082l6.662-10.037zm36-3.059c0 2.168-.299 4.072-.897 5.713-.586 1.629-1.441 2.994-2.566 4.096-1.113 1.09-2.484 1.91-4.113 2.461-1.617.551-3.463.826-5.537.826h-6.768V12.301h7.523c1.887 0 3.586.269 5.098.809 1.524.539 2.824 1.342 3.902 2.408 1.079 1.055 1.905 2.367 2.479 3.938.586 1.57.879 3.387.879 5.449zm-5.52.141c0-1.43-.146-2.66-.439-3.691-.281-1.043-.697-1.904-1.248-2.584a4.9 4.9 0 0 0-2.004-1.512c-.785-.328-1.688-.492-2.707-.492h-2.514V33.5h2.004c2.297 0 4.02-.703 5.168-2.109 1.16-1.406 1.74-3.521 1.74-6.346zM137.15 38l-1.037-2.672h-.158c-.387.527-.773.984-1.16 1.371-.387.375-.809.686-1.266.932s-.972.428-1.547.545c-.562.117-1.218.176-1.968.176-.797 0-1.535-.123-2.215-.369-.68-.258-1.272-.639-1.776-1.143-.492-.516-.878-1.16-1.16-1.934-.281-.785-.422-1.711-.422-2.777 0-2.086.668-3.621 2.004-4.606 1.336-.996 3.334-1.547 5.994-1.652l3.129-.105v-1.476c0-.809-.234-1.406-.703-1.793s-1.125-.58-1.969-.58a8.47 8.47 0 0 0-2.478.369 15.29 15.29 0 0 0-2.408.984l-1.74-3.551c.984-.551 2.074-.984 3.269-1.301a14.64 14.64 0 0 1 3.762-.475c2.449 0 4.324.574 5.625 1.723 1.312 1.148 1.969 2.895 1.969 5.238V38h-3.745zm-1.582-9.105l-1.775.07c-.715.023-1.318.117-1.811.281s-.89.387-1.195.668a2.45 2.45 0 0 0-.65.984c-.129.375-.194.797-.194 1.266 0 .82.2 1.406.598 1.758.398.34.92.51 1.564.51.493 0 .95-.082 1.372-.246.421-.176.785-.428 1.089-.756.317-.34.563-.75.739-1.23.175-.492.263-1.055.263-1.687v-1.617zm10.618-15.627c0-.504.076-.92.228-1.248a2.06 2.06 0 0 1 .615-.809c.27-.211.58-.357.932-.439.363-.082.744-.123 1.143-.123s.773.041 1.125.123a2.22 2.22 0 0 1 .914.439c.269.199.48.469.632.809.164.328.246.744.246 1.248 0 .492-.082.908-.246 1.248-.152.34-.363.615-.632.826-.258.199-.563.346-.914.439-.352.082-.727.123-1.125.123s-.78-.041-1.143-.123c-.352-.094-.662-.24-.932-.439a2.21 2.21 0 0 1-.615-.826c-.152-.34-.228-.756-.228-1.248zM151.775 38h-5.361V18.348h5.361V38z" fill="#262a2a"/><path fill-rule="evenodd" d="M23.065 0H0v11.639h23.065V0zM58 0H34.935v11.639H58V0zM46.4 46.555H34.935v11.639H58V46.555 35.052H46.4v11.504zm-23.335 0H11.6V35.052H0v11.504 11.639h0 23.065V46.555z" fill="#48a9a6"/></svg>
